X:947
T:1st August
T:First August
R:reel
C:Donogh Hennessy
D:L\'unasa: The Merry Sisters of Fate
Z:id:hn-reel-947
M:C|
L:1/8
K:Edor
DE~E2 GDEG | AB~B2 BAGB | BAAB AGEA | (3Bde dB AGEA |
GE~E2 GDEG | AB~B2 BAGB | BAAB AGED |1 EGAE GAEG :|2 EGAG ABde ||
|: fgag fedB | e3d BAGD | EG~G2 A2GA | ~B3d BAGD |
EG~G2 AG~G2 | (3Bde dB AGEG | DEGB AGAB |1 G2GF GABd :|2 G2GF GBFG ||

